X:51
T:Kost er c'hoad
C:trad.
A:Bretagne
O:France
M:4/4
L:1/8
Q:1/4=180
K:C
cA AA Bc dc|de cd B2B2|cA AA Bc dc|Bd cB A2A2:|
|:e2c2 de ff|d2B2 cd ee|c2A2 Bc dc|Bd cB A2A2:|
